src/ui/print.svg

<?xml version="1.0" encoding="UTF-8"?><svg xmlns="http://www.w3.org/2000/svg" width="32" height="32" viewBox="0 0 32 32"><defs><style>.uuid-ef41cd29-3bb2-4fc3-8ce8-4a9f6ea470fb{fill:none;}.uuid-496afe17-de2e-4483-bff6-c484180e4769{fill:#151515;}</style></defs><g id="uuid-12c7949a-1f43-403b-bc87-7faf27d31cf2"><rect class="uuid-ef41cd29-3bb2-4fc3-8ce8-4a9f6ea470fb" width="32" height="32"/></g><g id="uuid-6c1280b4-c82f-4c4e-9e0d-bf2bcfcdef36"><path class="uuid-496afe17-de2e-4483-bff6-c484180e4769" d="M29.5,7h-5.5v-2.5c0-.82715-.67285-1.5-1.5-1.5h-13c-.82715,0-1.5.67285-1.5,1.5v2.5H2.5c-.82715,0-1.5.67285-1.5,1.5v14c0,.82715.67285,1.5,1.5,1.5h5.5v3.5c0,.82715.67285,1.5,1.5,1.5h13c.82715,0,1.5-.67285,1.5-1.5v-3.5h5.5c.82715,0,1.5-.67285,1.5-1.5v-14c0-.82715-.67285-1.5-1.5-1.5ZM10,5h12v4h-12v-4ZM22,27h-12v-8h12v8ZM29,22h-5v-3h1c.55273,0,1-.44775,1-1s-.44727-1-1-1H7c-.55273,0-1,.44775-1,1s.44727,1,1,1h1v3H3v-13h5v.5c0,.82715.67285,1.5,1.5,1.5h13c.82715,0,1.5-.67285,1.5-1.5v-.5h5v13Z"/></g></svg>

<svg xmlns="http://www.w3.org/2000/svg" viewBox="0 0 32 32">
  <path d="M29.5 7H24V4.5c0-.827-.673-1.5-1.5-1.5h-13C8.673 3 8 3.673 8 4.5V7H2.5C1.673 7 1 7.673 1 8.5v14c0 .827.673 1.5 1.5 1.5H8v3.5c0 .827.673 1.5 1.5 1.5h13c.827 0 1.5-.673 1.5-1.5V24h5.5c.827 0 1.5-.673 1.5-1.5v-14c0-.827-.673-1.5-1.5-1.5ZM10 5h12v4H10V5Zm12 22H10v-8h12v8Zm7-5h-5v-3h1a1 1 0 0 0 0-2H7a1 1 0 0 0 0 2h1v3H3V9h5v.5c0 .827.673 1.5 1.5 1.5h13c.827 0 1.5-.673 1.5-1.5V9h5v13Z"/>
</svg>
